!!!OTL: De klenge Meenchen, S.53
!!!id: R0055
**kern
*clefG2
*k[f#c#]
*D:
{4d
=1
8a
8a
8a
8a
8a
8a
=2
2f#
4d
=3
2a
4b
=4
4a}
4r
=5
{4d
=6
4a
8a
8a
8a
8a
=7
2f#
4d
=8
2a
4b
=9
4a}
4r
=10
{4a
=11
4dd
4dd
4dd
=12
4b
4g
4g}
=13
{4b
8b
8cc#
8dd
8b
=14
4a
4f#
4f#
=15
4g
4e
4a
=16
4d}
4r
==
*-
!!!minrhy: 8
!!!meters: 3/4 ]  ZZ[4
!!!cut: De klenge Meenchen, S.53
!!!reg: Luxemburg, Echternach
!!!trd: D'Fraen um Kanddaaf an der aler Zeit, Luxemburg 1929
!!!rhy1: X_  XXXXXX  X__X_  X__X_  X_0_
!!!rhy2: X_  X_XXXX  X__X_  X__X_  X_0_
!!!key: R0055  08  D 3/4 ]  ZZ[4
!!!mod: HEPTATONIK IONISCH]  AMBITUS[8
!!!kad: 5541
!!!akz: 5355_5355_+16_6541_
!!!fot: 'a__av_as"b__
!!!for: 'a__b__c__d__
!!!fok: '~a_~a_^d_^d_
!! PHRAS[VORWIEGEND AUFTAKTIG]
!!!fkt: ??, Liebeslied?
!! RUDEN, J.M.:
!! PR[48] 2K[8] 2G[16] 3K[1] 3G[0] 4A[3] 4Ü[0] 5A[0] 6K[0] 6G[0]
!! 7K[0] 7G[0] 8A[0] MEHR[0] SI[28] ABS[79] SR[24] SP[4]
!! ST[24] 2k[5] 2g[11] 3k[5] 3g[1] 4d[0] 4ü[0] 5d[1] 6k[0] 6g[0]
!! 7k[0] 7g[0] 8d[0] mehr[0] si[24] dm[+4] sr[16] sp[8]
!! 1F[17] 2F[57] 3F[22] 4F[1] LF[0] 2P[2] 3P[0] 4P[0] TRI[0] DF[5] AB[81]
!! TF[0] U3K[0] U3[0] U4[0] U4Ü[0] U5[0] U6K[0] U6[0] U7K[0] U7[0]
!! N1[8] N2K[0] N2[10] N3K[0] N3[23] N4[20] N4Ü[0] N5[20] N6K[0] N6[13]
!!!n7k: 0] N7[3] O1[5] O2K[0] O2[0] O3K[0] O3[0] HÖ[0
